Resources/static/icons/github.svg

<svg xmlns="http://www.w3.org/2000/svg" viewBox="0 0 496 512"><!--! Font Awesome Pro 6.4.2 by @fontawesome - https://fontawesome.com License - https://fontawesome.com/license (Commercial License) Copyright 2023 Fonticons, Inc. --><path d="M165.9 397.4c0 2-2.3 3.6-5.2 3.6-3.3.3-5.6-1.3-5.6-3.6 0-2 2.3-3.6 5.2-3.6 3-.3 5.6 1.3 5.6 3.6zm-31.1-4.5c-.7 2 1.3 4.3 4.3 4.9 2.6 1 5.6 0 6.2-2s-1.3-4.3-4.3-5.2c-2.6-.7-5.5.3-6.2 2.3zm44.2-1.7c-2.9.7-4.9 2.6-4.6 4.9.3 2 2.9 3.3 5.9 2.6 2.9-.7 4.9-2.6 4.6-4.6-.3-1.9-3-3.2-5.9-2.9zM244.8 8C106.1 8 0 113.3 0 252c0 110.9 69.8 205.8 169.5 239.2 12.8 2.3 17.3-5.6 17.3-12.1 0-6.2-.3-40.4-.3-61.4 0 0-70 15-84.7-29.8 0 0-11.4-29.1-27.8-36.6 0 0-22.9-15.7 1.6-15.4 0 0 24.9 2 38.6 25.8 21.9 38.6 58.6 27.5 72.9 20.9 2.3-16 8.8-27.1 16-33.7-55.9-6.2-112.3-14.3-112.3-110.5 0-27.5 7.6-41.3 23.6-58.9-2.6-6.5-11.1-33.3 2.6-67.9 20.9-6.5 69 27 69 27 20-5.6 41.5-8.5 62.8-8.5s42.8 2.9 62.8 8.5c0 0 48.1-33.6 69-27 13.7 34.7 5.2 61.4 2.6 67.9 16 17.7 25.8 31.5 25.8 58.9 0 96.5-58.9 104.2-114.8 110.5 9.2 7.9 17 22.9 17 46.4 0 33.7-.3 75.4-.3 83.6 0 6.5 4.6 14.4 17.3 12.1C428.2 457.8 496 362.9 496 252 496 113.3 383.5 8 244.8 8zM97.2 352.9c-1.3 1-1 3.3.7 5.2 1.6 1.6 3.9 2.3 5.2 1 1.3-1 1-3.3-.7-5.2-1.6-1.6-3.9-2.3-5.2-1zm-10.8-8.1c-.7 1.3.3 2.9 2.3 3.9 1.6 1 3.6.7 4.3-.7.7-1.3-.3-2.9-2.3-3.9-2-.6-3.6-.3-4.3.7zm32.4 35.6c-1.6 1.3-1 4.3 1.3 6.2 2.3 2.3 5.2 2.6 6.5 1 1.3-1.3.7-4.3-1.3-6.2-2.2-2.3-5.2-2.6-6.5-1zm-11.4-14.7c-1.6 1-1.6 3.6 0 5.9 1.6 2.3 4.3 3.3 5.6 2.3 1.6-1.3 1.6-3.9 0-6.2-1.4-2.3-4-3.3-5.6-2z"/></svg>

<svg width="496" height="512" viewBox="0 0 496 512" fill="none" xmlns="http://www.w3.org/2000/svg">
<path d="M165.9 397.4C165.9 399.4 163.6 401 160.7 401C157.4 401.3 155.1 399.7 155.1 397.4C155.1 395.4 157.4 393.8 160.3 393.8C163.3 393.5 165.9 395.1 165.9 397.4ZM134.8 392.9C134.1 394.9 136.1 397.2 139.1 397.8C141.7 398.8 144.7 397.8 145.3 395.8C145.9 393.8 144 391.5 141 390.6C138.4 389.9 135.5 390.9 134.8 392.9ZM179 391.2C176.1 391.9 174.1 393.8 174.4 396.1C174.7 398.1 177.3 399.4 180.3 398.7C183.2 398 185.2 396.1 184.9 394.1C184.6 392.2 181.9 390.9 179 391.2ZM244.8 8C106.1 8 0 113.3 0 252C0 362.9 69.8 457.8 169.5 491.2C182.3 493.5 186.8 485.6 186.8 479.1C186.8 472.9 186.5 438.7 186.5 417.7C186.5 417.7 116.5 432.7 101.8 387.9C101.8 387.9 90.4 358.8 74 351.3C74 351.3 51.1 335.6 75.6 335.9C75.6 335.9 100.5 337.9 114.2 361.7C136.1 400.3 172.8 389.2 187.1 382.6C189.4 366.6 195.9 355.5 203.1 348.9C147.2 342.7 90.8 334.6 90.8 238.4C90.8 210.9 98.4 197.1 114.4 179.5C111.8 173 103.3 146.2 117 111.6C137.9 105.1 186 138.6 186 138.6C206 133 227.5 130.1 248.8 130.1C270.1 130.1 291.6 133 311.6 138.6C311.6 138.6 359.7 105 380.6 111.6C394.3 146.3 385.8 173 383.2 179.5C399.2 197.2 409 211 409 238.4C409 334.9 350.1 342.6 294.2 348.9C303.4 356.8 311.2 371.8 311.2 395.3C311.2 429 310.9 470.7 310.9 478.9C310.9 485.4 315.5 493.3 328.2 491C428.2 457.8 496 362.9 496 252C496 113.3 383.5 8 244.8 8ZM97.2 352.9C95.9 353.9 96.2 356.2 97.9 358.1C99.5 359.7 101.8 360.4 103.1 359.1C104.4 358.1 104.1 355.8 102.4 353.9C100.8 352.3 98.5 351.6 97.2 352.9ZM86.4 344.8C85.7 346.1 86.7 347.7 88.7 348.7C90.3 349.7 92.3 349.4 93 348C93.7 346.7 92.7 345.1 90.7 344.1C88.7 343.5 87.1 343.8 86.4 344.8ZM118.8 380.4C117.2 381.7 117.8 384.7 120.1 386.6C122.4 388.9 125.3 389.2 126.6 387.6C127.9 386.3 127.3 383.3 125.3 381.4C123.1 379.1 120.1 378.8 118.8 380.4ZM107.4 365.7C105.8 366.7 105.8 369.3 107.4 371.6C109 373.9 111.7 374.9 113 373.9C114.6 372.6 114.6 370 113 367.7C111.6 365.4 109 364.4 107.4 365.7Z" fill="white"/>
</svg>
